Papirus/48x48/apps/telegram.svg

<svg xmlns="http://www.w3.org/2000/svg" width="48" height="48" version="1">
 <circle style="opacity:0.2" cx="24" cy="25" r="20"/>
 <circle fill="#28a4e2" cx="24" cy="24" r="20"/>
 <path fill="#fff" opacity=".2" d="m24 4c-11.079 0-19.998 8.92-19.998 20 0 0.16772-0.004 0.33329 0 0.5 0.2642-10.846 9.087-19.5 19.998-19.5s19.734 8.6536 19.998 19.5c0.004-0.16671 0-0.33228 0-0.5 0-11.08-8.919-20-19.998-20z"/>
 <path style="opacity:0.2" d="m 31.078908,35.129559 c 0.380447,-0.73769 2.566528,-13.351367 2.879038,-16.61203 0.338085,-3.231038 -1.424733,-2.630199 -3.046807,-2.084375 -3.979577,1.343757 -16.561736,6.790526 -20.005718,8.588171 -0.847876,0.351588 -1.2143641,0.948127 -0.597434,1.464446 0.531176,0.437642 2.474854,1.038729 4.042381,1.343768 1.336246,0.404821 2.374181,0.01706 3.332282,-0.52339 2.3025,-1.365136 9.163427,-5.706736 9.532896,-5.948739 0.369469,-0.242003 0.773847,0.207117 0.567068,0.424538 -0.20678,0.21742 -5.065798,4.574917 -6.661125,6.545085 -0.84518,1.083286 -0.819864,1.661638 0.04838,2.34475 1.94784,1.527416 7.152072,5.009533 7.926443,5.220004 0.987441,0.268382 1.565754,0.04604 1.982602,-0.762228 z"/>
 <path style="fill:#ffffff" d="m 31.078908,34.129559 c 0.380447,-0.73769 2.566528,-13.351367 2.879038,-16.61203 0.338085,-3.231038 -1.424733,-2.630199 -3.046807,-2.084375 -3.979577,1.343757 -16.561736,6.790526 -20.005718,8.588171 -0.847876,0.351588 -1.2143641,0.948127 -0.597434,1.464446 0.531176,0.437642 2.474854,1.038729 4.042381,1.343768 1.336246,0.404821 2.374181,0.01706 3.332282,-0.52339 2.3025,-1.365136 9.163427,-5.706736 9.532896,-5.948739 0.369469,-0.242003 0.773847,0.207117 0.567068,0.424538 -0.20678,0.21742 -5.065798,4.574917 -6.661125,6.545085 -0.84518,1.083286 -0.819864,1.661638 0.04838,2.34475 1.94784,1.527416 7.152072,5.009533 7.926443,5.220004 0.987441,0.268382 1.565754,0.04604 1.982602,-0.762228 z"/>
</svg>

<svg xmlns="http://www.w3.org/2000/svg" width="48" height="48" version="1">
 <circle style="opacity:0.2" cx="24" cy="25" r="20"/>
 <circle fill="#28a4e2" cx="24" cy="24" r="20"/>
 <path fill="#fff" opacity=".2" d="m24 4c-11.079 0-19.998 8.92-19.998 20 0 0.16772-0.004 0.33329 0 0.5 0.2642-10.846 9.087-19.5 19.998-19.5s19.734 8.6536 19.998 19.5c0.004-0.16671 0-0.33228 0-0.5 0-11.08-8.919-20-19.998-20z"/>
 <path style="opacity:0.2" d="M 31.079,34.13 C 31.459,33.392 33.645,20.778 33.958,17.518 34.296,14.286 32.533,14.887 30.911,15.433 26.932,16.777 14.349,22.224 10.905,24.021 10.058,24.373 9.691,24.969 10.308,25.486 10.839,25.923 12.783,26.525 14.35,26.83 15.687,27.234 16.725,26.847 17.683,26.306 19.985,24.941 26.846,20.599 27.216,20.357 27.585,20.115 27.989,20.565 27.783,20.782 27.576,20.999 22.717,25.357 21.121,27.327 20.276,28.41 20.302,28.989 21.17,29.672 23.118,31.199 28.322,34.681 29.096,34.892 30.084,35.16 30.662,34.938 31.079,34.13 Z"/>
 <path style="fill:#ffffff" d="M 31.079,33.13 C 31.459,32.392 33.645,19.778 33.958,16.518 34.296,13.286 32.533,13.887 30.911,14.433 26.932,15.777 14.349,21.224 10.905,23.021 10.058,23.373 9.691,23.969 10.308,24.486 10.839,24.923 12.783,25.525 14.35,25.83 15.687,26.234 16.725,25.847 17.683,25.306 19.985,23.941 26.846,19.599 27.216,19.357 27.585,19.115 27.989,19.565 27.783,19.782 27.576,19.999 22.717,24.357 21.121,26.327 20.276,27.41 20.302,27.989 21.17,28.672 23.118,30.199 28.322,33.681 29.096,33.892 30.084,34.16 30.662,33.938 31.079,33.13 Z"/>
</svg>
